media/pieces/light_rook.svg

<?xml version="1.0" encoding="UTF-8" standalone="no"?>
<!-- Created with Inkscape (http://www.inkscape.org/) -->

<svg
   width="400"
   height="400"
   viewBox="0 0 105.83333 105.83333"
   version="1.1"
   id="svg1404"
   xml:space="preserve"
   inkscape:version="1.2.2 (732a01da63, 2022-12-09)"
   sodipodi:docname="light_rook.svg"
   xmlns:inkscape="http://www.inkscape.org/namespaces/inkscape"
   xmlns:sodipodi="http://sodipodi.sourceforge.net/DTD/sodipodi-0.dtd"
   xmlns="http://www.w3.org/2000/svg"
   xmlns:svg="http://www.w3.org/2000/svg"><sodipodi:namedview
     id="namedview1406"
     pagecolor="#505050"
     bordercolor="#ffffff"
     borderopacity="1"
     inkscape:showpageshadow="0"
     inkscape:pageopacity="0"
     inkscape:pagecheckerboard="1"
     inkscape:deskcolor="#505050"
     inkscape:document-units="mm"
     showgrid="false"
     inkscape:zoom="1.0129245"
     inkscape:cx="309.00625"
     inkscape:cy="264.08681"
     inkscape:window-width="1920"
     inkscape:window-height="991"
     inkscape:window-x="-9"
     inkscape:window-y="-9"
     inkscape:window-maximized="1"
     inkscape:current-layer="layer1" /><defs
     id="defs1401" /><g
     inkscape:label="Layer 1"
     inkscape:groupmode="layer"
     id="layer1"><g
       style="opacity:1;fill:#ffffff;fill-opacity:1;fill-rule:evenodd;stroke:#000000;stroke-width:1.5;stroke-linecap:round;stroke-linejoin:round;stroke-miterlimit:4;stroke-dasharray:none;stroke-opacity:1"
       transform="matrix(2.9381906,0,0,2.9381906,-12.940633,-17.599906)"
       id="g2262"><path
         d="M 9,39 H 36 V 36 H 9 Z"
         style="stroke-linecap:butt"
         id="path2248" /><path
         d="m 12,36 v -4 h 21 v 4 z"
         style="stroke-linecap:butt"
         id="path2250" /><path
         d="M 11,14 V 9 h 4 v 2 h 5 V 9 h 5 v 2 h 5 V 9 h 4 v 5"
         style="stroke-linecap:butt"
         id="path2252" /><path
         d="m 34,14 -3,3 H 14 l -3,-3"
         id="path2254" /><path
         d="M 31,17 V 29.5 H 14 V 17"
         style="stroke-linecap:butt;stroke-linejoin:miter"
         id="path2256" /><path
         d="m 31,29.5 1.5,2.5 h -20 L 14,29.5"
         id="path2258" /><path
         d="M 11,14 H 34"
         style="fill:none;stroke:#000000;stroke-linejoin:miter"
         id="path2260" /></g></g></svg>

<?xml version="1.0" encoding="UTF-8" standalone="no"?>
<!DOCTYPE svg PUBLIC "-//W3C//DTD SVG 1.1//EN" "http://www.w3.org/Graphics/SVG/1.1/DTD/svg11.dtd">
<svg xmlns="http://www.w3.org/2000/svg" version="1.1" width="45" height="45">
  <g style="opacity:1; fill:#ffffff; fill-opacity:1; fill-rule:evenodd; stroke:#000000; stroke-width:1.5; stroke-linecap:round;stroke-linejoin:round;stroke-miterlimit:4; stroke-dasharray:none; stroke-opacity:1;" transform="translate(0,0.3)">
    <path
      d="M 9,39 L 36,39 L 36,36 L 9,36 L 9,39 z "
      style="stroke-linecap:butt;" />
    <path
      d="M 12,36 L 12,32 L 33,32 L 33,36 L 12,36 z "
      style="stroke-linecap:butt;" />
    <path
      d="M 11,14 L 11,9 L 15,9 L 15,11 L 20,11 L 20,9 L 25,9 L 25,11 L 30,11 L 30,9 L 34,9 L 34,14"
      style="stroke-linecap:butt;" />
    <path
      d="M 34,14 L 31,17 L 14,17 L 11,14" />
    <path
      d="M 31,17 L 31,29.5 L 14,29.5 L 14,17"
      style="stroke-linecap:butt; stroke-linejoin:miter;" />
    <path
      d="M 31,29.5 L 32.5,32 L 12.5,32 L 14,29.5" />
    <path
      d="M 11,14 L 34,14"
      style="fill:none; stroke:#000000; stroke-linejoin:miter;" />
  </g>
</svg>
